X: 23
T:Rob Roy. WI.023
T:Duncan Gray,aka. WI.023
M:2/4
L:1/8
Q:150
C:Duncan Gray,aka
S:Wm Irwin, 1838 MS, AGG's Transcription
R:Air
O:England
A:Lake District
N:Not clear about the final c in each bit as to whether it should be a
N:d..cgp.
Z:vmp.Chris Partington.2005
K:D
A|Ad cd|efc2|c2e>d|fdcz|
Ad cd|efc2|d2e>d|fdcz||!
fa af|ggg2|ff ed|cBA2|
ab/a/ ga/g/|fg/f/e2|d2e>d|fdcz|]
